app/images/patterns/battles-pattern.svg

<svg width="416" height="104" fill="none" xmlns="http://www.w3.org/2000/svg"><path d="M26 0H0v26h26V0zm0 52H0v26h26V52zm390-26h-26v26h26V26zm0 52h-26v26h26V78zM234 0h-26v26h26V0zm0 52h-26v26h26V52zm-26-26h-26v26h26V26zm0 52h-26v26h26V78zM78 0H52v26h26V0zm0 52H52v26h26V52zM52 26H26v26h26V26zm0 52H26v26h26V78zM286 0h-26v26h26V0zm0 52h-26v26h26V52zm-26-26h-26v26h26V26zm0 52h-26v26h26V78zM130 0h-26v26h26V0zm0 52h-26v26h26V52zm-26-26H78v26h26V26zm0 52H78v26h26V78zM338 0h-26v26h26V0zm0 52h-26v26h26V52zm-26-26h-26v26h26V26zm0 52h-26v26h26V78zM182 0h-26v26h26V0zm0 52h-26v26h26V52zm-26-26h-26v26h26V26zm0 52h-26v26h26V78zM390 0h-26v26h26V0zm0 52h-26v26h26V52zm-26-26h-26v26h26V26zm0 52h-26v26h26V78z" fill="#fff"/><path d="M52 0H26v26h26V0zm0 52H26v26h26V52zM26 26H0v26h26V26zm0 52H0v26h26V78zM260 0h-26v26h26V0zm0 52h-26v26h26V52zm-26-26h-26v26h26V26zm0 52h-26v26h26V78zM104 0H78v26h26V0zm0 52H78v26h26V52zM78 26H52v26h26V26zm0 52H52v26h26V78zM312 0h-26v26h26V0zm0 52h-26v26h26V52zm-26-26h-26v26h26V26zm0 52h-26v26h26V78zM156 0h-26v26h26V0zm0 52h-26v26h26V52zm-26-26h-26v26h26V26zm0 52h-26v26h26V78zM364 0h-26v26h26V0zm0 52h-26v26h26V52zm-26-26h-26v26h26V26zm0 52h-26v26h26V78zM208 0h-26v26h26V0zm0 52h-26v26h26V52zm-26-26h-26v26h26V26zm0 52h-26v26h26V78zM416 0h-26v26h26V0zm0 52h-26v26h26V52zm-26-26h-26v26h26V26zm0 52h-26v26h26V78z" fill="#009465"/></svg>

<svg width="416" height="104" viewBox="0 0 416 104" fill="none" xmlns="http://www.w3.org/2000/svg">
<path d="M26 0H0V26H26V0Z" fill="white"/>
<path d="M26 52H0V78H26V52Z" fill="white"/>
<path d="M416 26H390V52H416V26Z" fill="white"/>
<path d="M416 78H390V104H416V78Z" fill="white"/>
<path d="M234 0H208V26H234V0Z" fill="white"/>
<path d="M234 52H208V78H234V52Z" fill="white"/>
<path d="M208 26H182V52H208V26Z" fill="white"/>
<path d="M208 78H182V104H208V78Z" fill="white"/>
<path d="M78 0H52V26H78V0Z" fill="white"/>
<path d="M78 52H52V78H78V52Z" fill="white"/>
<path d="M52 26H26V52H52V26Z" fill="white"/>
<path d="M52 78H26V104H52V78Z" fill="white"/>
<path d="M286 0H260V26H286V0Z" fill="white"/>
<path d="M286 52H260V78H286V52Z" fill="white"/>
<path d="M260 26H234V52H260V26Z" fill="white"/>
<path d="M260 78H234V104H260V78Z" fill="white"/>
<path d="M130 0H104V26H130V0Z" fill="white"/>
<path d="M130 52H104V78H130V52Z" fill="white"/>
<path d="M104 26H78V52H104V26Z" fill="white"/>
<path d="M104 78H78V104H104V78Z" fill="white"/>
<path d="M338 0H312V26H338V0Z" fill="white"/>
<path d="M338 52H312V78H338V52Z" fill="white"/>
<path d="M312 26H286V52H312V26Z" fill="white"/>
<path d="M312 78H286V104H312V78Z" fill="white"/>
<path d="M182 0H156V26H182V0Z" fill="white"/>
<path d="M182 52H156V78H182V52Z" fill="white"/>
<path d="M156 26H130V52H156V26Z" fill="white"/>
<path d="M156 78H130V104H156V78Z" fill="white"/>
<path d="M390 0H364V26H390V0Z" fill="white"/>
<path d="M390 52H364V78H390V52Z" fill="white"/>
<path d="M364 26H338V52H364V26Z" fill="white"/>
<path d="M364 78H338V104H364V78Z" fill="white"/>
<path d="M52 0H26V26H52V0Z" fill="#009465"/>
<path d="M52 52H26V78H52V52Z" fill="#009465"/>
<path d="M26 26H0V52H26V26Z" fill="#009465"/>
<path d="M26 78H0V104H26V78Z" fill="#009465"/>
<path d="M260 0H234V26H260V0Z" fill="#009465"/>
<path d="M260 52H234V78H260V52Z" fill="#009465"/>
<path d="M234 26H208V52H234V26Z" fill="#009465"/>
<path d="M234 78H208V104H234V78Z" fill="#009465"/>
<path d="M104 0H78V26H104V0Z" fill="#009465"/>
<path d="M104 52H78V78H104V52Z" fill="#009465"/>
<path d="M78 26H52V52H78V26Z" fill="#009465"/>
<path d="M78 78H52V104H78V78Z" fill="#009465"/>
<path d="M312 0H286V26H312V0Z" fill="#009465"/>
<path d="M312 52H286V78H312V52Z" fill="#009465"/>
<path d="M286 26H260V52H286V26Z" fill="#009465"/>
<path d="M286 78H260V104H286V78Z" fill="#009465"/>
<path d="M156 0H130V26H156V0Z" fill="#009465"/>
<path d="M156 52H130V78H156V52Z" fill="#009465"/>
<path d="M130 26H104V52H130V26Z" fill="#009465"/>
<path d="M130 78H104V104H130V78Z" fill="#009465"/>
<path d="M364 0H338V26H364V0Z" fill="#009465"/>
<path d="M364 52H338V78H364V52Z" fill="#009465"/>
<path d="M338 26H312V52H338V26Z" fill="#009465"/>
<path d="M338 78H312V104H338V78Z" fill="#009465"/>
<path d="M208 0H182V26H208V0Z" fill="#009465"/>
<path d="M208 52H182V78H208V52Z" fill="#009465"/>
<path d="M182 26H156V52H182V26Z" fill="#009465"/>
<path d="M182 78H156V104H182V78Z" fill="#009465"/>
<path d="M416 0H390V26H416V0Z" fill="#009465"/>
<path d="M416 52H390V78H416V52Z" fill="#009465"/>
<path d="M390 26H364V52H390V26Z" fill="#009465"/>
<path d="M390 78H364V104H390V78Z" fill="#009465"/>
</svg>
